!!!OTL: "Nonnenlied" DES ABENDS WENN ICH SCHLAFEN GEHE
!!!ARE: Europa, Mitteleuropa, Deutschland, Niederrhein
!!!SCT: Z1246
!!!YEM: Copyright 1995, estate of Helmut Schaffrath.
**kern
*ICvox
*Ivox
*M4/4
*k[f#]
*G:
{4d
=1
8g
8f#
8e
8d
4d
4g
=2
4f#
4g
2a
=3
2g
2d}
=4
{4.g
8b
4.a
8cc
=5
4b
4b
4a
4a
=6
2.g
4r}
=7
{4.b
8dd
4cc
4b
=8
4a
4g
2a}
=9
{4g
8.a
16b
4a
8.b
16cc
=10
4b
4b
4a
4a
=11
2g
4r}
==
!!!AGN: Liebes - Lied
!!!ONB: ESAC (Essen Associative Code) Database: ZUCCAL
!!!AMT: simple quadruple
!!!AIN: vox
!!!EED: Helmut Schaffrath
!!!EEV: 1.0
*-
